X: 11575
T: Edward Corcoran
R: jig
M: 6/8
K: Dminor
F|FEF D2F|FEF DAG|FED CEG|FED CDE|
FEF G^FG|A^GA d2e|fed edc|dcA cAG|
AGF GFE|FED EDC|DA,^C DFE|D3 D2||
G|AGF GDC)|cCC Cde|fed ed^c|
dDD DAd|fed ed^c|AGF GFE|gfe fed|FED EDC|
f2f g2g|a2a bag|fed ed^c|d3 d2||

